Packages/UltraviolenceExamples/Sources/UltraviolenceExamples/Resources/Samples/Hollywood_-_Cinecom.cube
LUT_3D_SIZE 6
0.000000 0.000000 0.000000
0.118312 0.000000 0.000000
0.314905 0.072182 0.070137
0.525272 0.142855 0.133080
0.739816 0.208580 0.189798
0.944730 0.270494 0.242243
0.037212 0.136202 0.042861
0.137234 0.141217 0.056026
0.322664 0.168458 0.097529
0.529800 0.209244 0.148565
0.742879 0.256943 0.199972
0.946534 0.307322 0.249613
0.151715 0.326893 0.143504
0.207394 0.328786 0.147953
0.354116 0.336650 0.164860
0.549293 0.362599 0.198245
0.756413 0.391411 0.237076
0.953802 0.422734 0.277958
0.268698 0.520585 0.234584
0.304735 0.521606 0.236960
0.422621 0.525992 0.246706
0.586866 0.534876 0.264856
0.783529 0.556432 0.293923
0.967439 0.576932 0.325293
0.386471 0.711729 0.320651
0.412221 0.712275 0.322183
0.505623 0.715097 0.328721
0.650829 0.721040 0.341358
0.824823 0.730728 0.360241
0.984483 0.745246 0.384618
0.502457 0.895671 0.401836
0.521741 0.896059 0.402935
0.596458 0.898264 0.407653
0.721560 0.902679 0.416912
0.880427 0.909744 0.431228
0.998394 0.919437 0.450269
0.000000 0.004595 0.123546
0.120294 0.000000 0.117541
0.315687 0.075754 0.143322
0.525725 0.144833 0.180864
0.740263 0.209768 0.223446
0.945092 0.271440 0.267266
0.035812 0.132330 0.123853
0.139414 0.143271 0.133442
0.328000 0.150403 0.139668
0.531901 0.186156 0.170624
0.743111 0.232927 0.210520
0.945570 0.283065 0.252786
0.153124 0.327686 0.185563
0.192120 0.335575 0.175814
0.362875 0.344313 0.191545
0.552195 0.357550 0.215478
0.756807 0.380912 0.246217
0.952840 0.408773 0.281057
0.269469 0.521008 0.259877
0.291099 0.524857 0.251310
0.418706 0.529387 0.260736
0.591418 0.538682 0.278477
0.784693 0.553398 0.301864
0.966755 0.569654 0.328371
0.387075 0.711709 0.337772
0.399053 0.713522 0.329611
0.497546 0.716333 0.336037
0.648097 0.722379 0.348569
0.826710 0.732223 0.367300
0.984314 0.742389 0.387672
0.502845 0.896002 0.414310
0.508595 0.896004 0.406060
0.586251 0.898046 0.410726
0.715323 0.902419 0.420100
0.877648 0.909346 0.434415
0.998491 0.919664 0.453521
0.000000 0.012004 0.279483
0.108162 0.003690 0.315384
0.319029 0.089608 0.271906
0.527740 0.152754 0.294725
0.741683 0.215079 0.320355
0.945724 0.275275 0.348364
0.000000 0.146272 0.231892
0.040462 0.116106 0.288519
0.330940 0.151376 0.280606
0.533941 0.191716 0.293702
0.744210 0.237567 0.314735
0.946153 0.286717 0.339793
0.133399 0.307945 0.273573
0.175012 0.319080 0.282856
0.359474 0.341304 0.301287
0.559584 0.334896 0.295989
0.758381 0.336840 0.297589
0.949109 0.346396 0.305495
0.272554 0.522666 0.341312
0.294125 0.526602 0.339194
0.377214 0.538651 0.314050
0.605440 0.550350 0.331683
0.788655 0.541487 0.345683
0.964110 0.540278 0.350463
0.389210 0.712837 0.399820
0.401210 0.714460 0.394852
0.454646 0.721041 0.368766
0.633611 0.727764 0.380910
0.834384 0.738503 0.399362
0.983127 0.730469 0.407420
0.504531 0.896616 0.462225
0.510199 0.896681 0.455935
0.538322 0.896742 0.426376
0.685912 0.901622 0.435751
0.864350 0.908994 0.450227
0.998525 0.919813 0.469478
0.000000 0.021245 0.432601
0.044720 0.013689 0.473181
0.357139 0.000325 0.461356
0.531744 0.167533 0.421874
0.744162 0.225367 0.440424
0.947400 0.282888 0.458593
0.000000 0.171110 0.391654
0.001568 0.117436 0.439361
0.345885 0.112568 0.470411
0.538015 0.202424 0.426168
0.747166 0.246647 0.439331
0.947869 0.294029 0.454313
0.047367 0.292221 0.361042
0.063303 0.290895 0.367074
0.183350 0.272060 0.448944
0.561031 0.312438 0.441795
0.760643 0.337332 0.436624
0.950692 0.350510 0.437872
0.234116 0.487192 0.420743
0.254623 0.490716 0.423580
0.336145 0.502779 0.433355
0.595955 0.542446 0.465345
0.793226 0.532657 0.457469
0.962390 0.510259 0.439383
0.393410 0.715212 0.494439
0.405403 0.716630 0.492981
0.458741 0.723590 0.484813
0.595724 0.732406 0.465203
0.842681 0.745166 0.481871
0.982731 0.720118 0.484561
0.507698 0.898053 0.541739
0.513531 0.898310 0.537834
0.541550 0.898541 0.520064
0.636747 0.900861 0.492626
0.843976 0.908868 0.505738
0.998738 0.920792 0.523621
0.000000 0.031472 0.580117
0.003936 0.024652 0.617815
0.289681 0.009450 0.652293
0.574707 0.134198 0.590169
0.748823 0.240632 0.566295
0.949754 0.294501 0.579120
0.000000 0.180605 0.545481
0.000000 0.094817 0.584004
0.259549 0.044826 0.649758
0.574086 0.164710 0.595066
0.751722 0.260350 0.568182
0.950342 0.305148 0.577505
0.000000 0.346180 0.484330
0.000000 0.334337 0.511871
0.102030 0.262881 0.592479
0.558964 0.265827 0.619783
0.764686 0.337601 0.576601
0.952917 0.356774 0.571848
0.161153 0.444143 0.491580
0.168061 0.441281 0.491163
0.194073 0.430486 0.494241
0.385900 0.452900 0.595746
0.792402 0.501070 0.594544
0.963374 0.503698 0.574662
0.338241 0.666365 0.564423
0.349771 0.667840 0.565582
0.401018 0.673940 0.570437
0.533683 0.680838 0.575899
0.837207 0.740722 0.623291
0.985152 0.729815 0.614729
0.512111 0.900682 0.640812
0.518193 0.900617 0.639203
0.546460 0.901490 0.631741
0.641443 0.904008 0.621204
0.841353 0.911821 0.625959
0.999319 0.923961 0.639882
0.000000 0.042169 0.720039
0.000000 0.035997 0.753306
0.207313 0.021516 0.824596
0.555161 0.004058 0.809998
0.777879 0.225863 0.715495
0.953230 0.310138 0.703122
0.000000 0.179662 0.691039
0.000000 0.042152 0.720015
0.169950 0.023660 0.816466
0.537784 0.005040 0.817585
0.776567 0.237368 0.717495
0.953515 0.320141 0.703446
0.000000 0.371380 0.631372
0.000000 0.355877 0.639165
0.013570 0.232045 0.727040
0.460960 0.207640 0.815203
0.770991 0.287932 0.727384
0.956236 0.365264 0.705848
0.027071 0.483673 0.608725
0.028741 0.479983 0.611576
0.051812 0.461644 0.632497
0.267149 0.420276 0.728996
0.766028 0.433010 0.755923
0.965077 0.492697 0.714238
0.259870 0.601638 0.624125
0.263779 0.598239 0.622659
0.281869 0.583935 0.615688
0.345543 0.566262 0.609804
0.636879 0.653125 0.726351
0.984879 0.710985 0.737121
0.440836 0.839310 0.700869
0.446549 0.839555 0.701069
0.473812 0.839819 0.701265
0.565683 0.841184 0.702328
0.767247 0.852396 0.711015
1.000021 0.931552 0.772959
