Packages/UltraviolenceExamples/Sources/UltraviolenceExamples/Resources/Samples/Hollywood_-_Cinecom.cube
LUT_3D_SIZE 16
0.000000 0.000000 0.000000
0.000000 0.000000 0.000000
0.056662 0.000000 0.000000
0.118312 0.000000 0.000000
0.181829 0.017094 0.018155
0.247382 0.047411 0.047284
0.314905 0.072182 0.070137
0.383974 0.096336 0.091961
0.454306 0.120017 0.113009
0.525272 0.142855 0.133080
0.596618 0.165215 0.152526
0.668333 0.187111 0.171438
0.739816 0.208580 0.189798
0.811482 0.229722 0.207812
0.882420 0.250432 0.225345
0.944730 0.270494 0.242243
0.000000 0.000000 0.000000
0.000000 0.000000 0.000000
0.059299 0.000000 0.000000
0.119734 0.017829 0.000000
0.182716 0.040463 0.024983
0.248084 0.061462 0.050473
0.315485 0.082949 0.072410
0.384590 0.105106 0.093768
0.454679 0.127134 0.114456
0.525618 0.148868 0.134315
0.596935 0.170262 0.153486
0.668729 0.191617 0.172251
0.739965 0.212463 0.190564
0.811464 0.233234 0.208473
0.882574 0.253581 0.225966
0.944974 0.273383 0.242778
0.000000 0.072216 0.000000
0.017485 0.072931 0.000000
0.069594 0.075792 0.000000
0.125739 0.080530 0.024393
0.186845 0.090582 0.043733
0.251109 0.103849 0.062451
0.317785 0.119067 0.081511
0.386364 0.135772 0.101099
0.456253 0.153436 0.120369
0.526999 0.171734 0.139194
0.598165 0.190325 0.157693
0.669745 0.209373 0.175886
0.741042 0.228365 0.193742
0.812730 0.247534 0.211293
0.883198 0.266555 0.228464
0.945477 0.285155 0.245075
0.037212 0.136202 0.042861
0.049161 0.136598 0.043943
0.086606 0.138122 0.048300
0.137234 0.141217 0.056026
0.194906 0.148105 0.067591
0.257268 0.157445 0.081712
0.322664 0.168458 0.097529
0.390258 0.180929 0.114223
0.459616 0.194565 0.131315
0.529800 0.209244 0.148565
0.600678 0.224575 0.165785
0.671924 0.240599 0.182989
0.742879 0.256943 0.199972
0.814248 0.273692 0.216844
0.884909 0.290578 0.233460
0.946534 0.307322 0.249613
0.074810 0.199351 0.078131
0.082916 0.199592 0.078796
0.112200 0.200571 0.081432
0.155911 0.202665 0.086477
0.207005 0.205799 0.093954
0.266749 0.213793 0.105285
0.330351 0.222871 0.118058
0.396581 0.232920 0.131867
0.464951 0.244061 0.146722
0.534440 0.255974 0.162029
0.604611 0.268576 0.177668
0.675421 0.281884 0.193546
0.746102 0.295610 0.209454
0.817006 0.309867 0.225369
0.887510 0.324461 0.241175
0.948420 0.338935 0.256604
0.113311 0.262889 0.111656
0.119309 0.263076 0.112092
0.142186 0.263848 0.113961
0.179879 0.265408 0.117597
0.226899 0.267726 0.123039
0.279474 0.271009 0.130160
0.340904 0.279295 0.140931
0.405375 0.288208 0.152662
0.472418 0.297716 0.165434
0.540909 0.307892 0.178876
0.610294 0.318445 0.192912
0.680393 0.329675 0.207332
0.750490 0.341254 0.221937
0.821155 0.353347 0.236769
0.891215 0.365767 0.251588
0.950777 0.378006 0.266056
0.151715 0.326893 0.143504
0.156323 0.327072 0.143826
0.174860 0.327589 0.145145
0.207394 0.328786 0.147953
0.250240 0.330572 0.152201
0.299981 0.333240 0.157859
0.354116 0.336650 0.164860
0.416782 0.345076 0.175216
0.482010 0.353602 0.186308
0.549293 0.362599 0.198245
0.617763 0.371957 0.210749
0.687130 0.381601 0.223776
0.756413 0.391411 0.237076
0.826322 0.401908 0.250725
0.895893 0.412366 0.264431
0.953802 0.422734 0.277958
0.190444 0.391459 0.174490
0.194252 0.391540 0.174748
0.209745 0.391890 0.175794
0.237916 0.392879 0.177891
0.276595 0.394345 0.181238
0.323014 0.396406 0.185858
0.374926 0.399165 0.191734
0.430467 0.402636 0.198659
0.493963 0.410870 0.208715
0.559856 0.419163 0.219378
0.626998 0.427521 0.230593
0.695490 0.436158 0.242320
0.763994 0.444697 0.254395
0.833088 0.453639 0.266880
0.901917 0.462784 0.279505
0.957669 0.471547 0.291979
0.229505 0.456130 0.204842
0.232688 0.456179 0.205032
0.245880 0.456532 0.205890
0.270541 0.457295 0.207655
0.305602 0.458487 0.210387
0.348611 0.460146 0.214160
0.397774 0.462464 0.219096
0.451348 0.465261 0.225055
0.508164 0.468748 0.231996
0.572409 0.476653 0.241744
0.638191 0.484458 0.251837
0.705358 0.492252 0.262545
0.772919 0.499979 0.273451
0.841462 0.507880 0.284800
0.908887 0.515811 0.296440
0.962382 0.523269 0.307872
0.268698 0.520585 0.234584
0.271439 0.520685 0.234755
0.282895 0.521003 0.235466
0.304735 0.521606 0.236960
0.336340 0.522644 0.239271
0.376288 0.524062 0.242491
0.422621 0.525992 0.246706
0.473877 0.528358 0.251815
0.528893 0.531336 0.257894
0.586866 0.534876 0.264856
0.651210 0.542216 0.274225
0.717043 0.549503 0.283899
0.783529 0.556432 0.293923
0.851041 0.563573 0.304284
0.917167 0.570541 0.314790
0.967439 0.576932 0.325293
0.307953 0.584633 0.263776
0.310425 0.584743 0.263889
0.320432 0.585045 0.264569
0.339863 0.585537 0.265768
0.368513 0.586419 0.267790
0.405342 0.587710 0.270596
0.448880 0.589299 0.274227
0.497815 0.591463 0.278722
0.550910 0.593986 0.284013
0.607174 0.596934 0.290200
0.666007 0.600634 0.297094
0.730461 0.607544 0.306133
0.795736 0.613922 0.315289
0.862118 0.620317 0.324794
0.926171 0.626544 0.334457
0.973015 0.632008 0.344057
0.347420 0.648634 0.292587
0.349471 0.648749 0.292669
0.358416 0.648742 0.293194
0.375885 0.649359 0.294245
0.401832 0.650100 0.296038
0.435986 0.651214 0.298507
0.476831 0.652618 0.301598
0.523250 0.654470 0.305635
0.574212 0.656595 0.310324
0.628564 0.659383 0.315810
0.685968 0.662457 0.322039
0.745662 0.666122 0.329003
0.809675 0.672279 0.337556
0.874716 0.678000 0.346263
0.935873 0.683667 0.355258
0.978657 0.688293 0.363881
0.386471 0.711729 0.320651
0.388423 0.711542 0.320812
0.396429 0.711700 0.321288
0.412221 0.712275 0.322183
0.435959 0.712787 0.323704
0.467369 0.713827 0.325843
0.505623 0.715097 0.328721
0.549608 0.716606 0.332155
0.598298 0.718742 0.336428
0.650829 0.721040 0.341358
0.706468 0.723875 0.347072
0.764579 0.727076 0.353310
0.824823 0.730728 0.360241
0.888726 0.736183 0.368440
0.945854 0.741185 0.376546
0.984483 0.745246 0.384618
0.425659 0.774162 0.348420
0.427411 0.774203 0.348602
0.434651 0.774372 0.348978
0.448833 0.774860 0.349841
0.470735 0.775576 0.351222
0.499853 0.776233 0.353124
0.535588 0.777376 0.355637
0.577165 0.778856 0.358711
0.623594 0.780590 0.362511
0.674058 0.782586 0.366970
0.727865 0.785264 0.372010
0.784599 0.788071 0.377776
0.843432 0.791386 0.384167
0.903921 0.794828 0.390943
0.956186 0.799506 0.398730
0.989899 0.802886 0.405999
0.464442 0.835951 0.375583
0.466039 0.835772 0.375625
0.472540 0.835810 0.376061
0.485638 0.836483 0.376780
0.505682 0.836764 0.378060
0.532705 0.837738 0.379737
0.566117 0.838593 0.382126
0.605367 0.839946 0.384928
0.649642 0.841540 0.388362
0.697979 0.843291 0.392319
0.749678 0.845512 0.396890
0.804931 0.848243 0.402089
0.862218 0.851138 0.407862
0.920105 0.854490 0.414259
0.966427 0.858192 0.421102
0.994724 0.860984 0.427926
0.502457 0.895671 0.401836
0.503850 0.895769 0.401915
0.509890 0.896008 0.402269
0.521741 0.896059 0.402935
0.540158 0.896586 0.404048
0.565213 0.897087 0.405601
0.596458 0.898264 0.407653
0.633469 0.899570 0.410254
0.675402 0.900854 0.413346
0.721560 0.902679 0.416912
0.771604 0.904396 0.421135
0.824807 0.906710 0.425915
0.880427 0.909744 0.431228
0.934459 0.912765 0.437036
0.975380 0.915777 0.443347
0.998394 0.919437 0.450269
0.000000 0.000000 0.000000
0.000000 0.000000 0.000000
0.056916 0.000000 0.000000
0.118486 0.000000 0.010029
0.181911 0.017904 0.037302
0.247475 0.047763 0.057930
0.314923 0.072429 0.078041
0.384083 0.096543 0.098292
0.454350 0.120186 0.118075
0.525263 0.143044 0.137306
0.596633 0.165287 0.156046
0.668465 0.187231 0.174487
0.739845 0.208622 0.192438
0.811547 0.229809 0.210189
0.882527 0.250517 0.227474
0.944776 0.270567 0.244170
0.000000 0.000000 0.000000
0.000000 0.000000 0.000000
0.060105 0.000000 0.000000
0.120235 0.024989 0.025924
0.183049 0.044059 0.044136
0.248243 0.063614 0.062297
0.315614 0.084265 0.081098
0.384435 0.105972 0.100558
0.454798 0.127667 0.119762
0.525701 0.149204 0.138623
0.596991 0.170543 0.157142
0.668704 0.191675 0.175347
0.739952 0.212576 0.193244
0.811526 0.233307 0.210842
0.882499 0.253657 0.228045
0.944965 0.273459 0.244729
0.000000 0.072494 0.020942
0.022167 0.073393 0.027455
0.070000 0.076201 0.033698
0.126175 0.082191 0.043722
0.187067 0.092228 0.056984
0.251288 0.105120 0.072389
0.317887 0.119957 0.089358
0.386408 0.136403 0.107295
0.456296 0.153830 0.125358
0.527017 0.171969 0.143349
0.598183 0.190563 0.161237
0.669733 0.209511 0.178931
0.741116 0.228459 0.196356
0.812714 0.247605 0.213632
0.883250 0.266600 0.230556
0.945473 0.285237 0.246960
0.037497 0.136393 0.053815
0.051779 0.136860 0.056939
0.087942 0.138393 0.060379
0.137448 0.141423 0.066657
0.195174 0.148769 0.076871
0.257451 0.158147 0.089563
0.322755 0.169011 0.104041
0.390473 0.181310 0.119579
0.459738 0.194949 0.135771
0.529906 0.209474 0.152349
0.600672 0.224724 0.169028
0.671995 0.240671 0.185858
0.743010 0.257019 0.202489
0.814291 0.273732 0.219095
0.884975 0.290674 0.235482
0.946649 0.307330 0.251423
0.075033 0.199455 0.084935
0.084567 0.199742 0.086822
0.113315 0.200822 0.089231
0.156521 0.202871 0.093869
0.207186 0.205981 0.100668
0.266906 0.214147 0.111219
0.330426 0.223243 0.123239
0.396680 0.233210 0.136335
0.465005 0.244256 0.150550
0.534403 0.256145 0.165433
0.604664 0.268719 0.180626
0.675437 0.281946 0.196202
0.746117 0.295660 0.211820
0.817074 0.309921 0.227501
0.887505 0.324458 0.243118
0.948528 0.338954 0.258375
0.113459 0.262965 0.116421
0.120328 0.263148 0.117565
0.142977 0.263964 0.119302
0.180402 0.265464 0.122749
0.227184 0.267798 0.127926
0.279539 0.271067 0.134682
0.340938 0.279528 0.145017
0.405468 0.288438 0.156337
0.472514 0.297877 0.168677
0.540911 0.307950 0.181798
0.610338 0.318594 0.195567
0.680556 0.329704 0.209739
0.750542 0.341300 0.224124
0.821217 0.353432 0.238738
0.891281 0.365784 0.253391
0.950773 0.378061 0.267762
0.151800 0.327014 0.147059
0.156983 0.327072 0.147785
0.175421 0.327668 0.149110
0.207766 0.328899 0.151766
0.250592 0.330764 0.155895
0.300154 0.333350 0.161351
0.354179 0.336714 0.168173
0.416846 0.345223 0.178274
0.482023 0.353850 0.189076
0.549352 0.362689 0.200807
0.617766 0.371923 0.213085
0.687222 0.381663 0.225962
0.756474 0.391560 0.239066
0.826385 0.401948 0.252531
0.895879 0.412441 0.266084
0.953823 0.422872 0.279509
0.190544 0.391419 0.177326
0.194633 0.391553 0.177775
0.210107 0.392031 0.178838
0.238183 0.392946 0.180886
0.276795 0.394369 0.184162
0.323270 0.396543 0.188688
0.375019 0.399145 0.194448
0.430470 0.402640 0.201223
0.494042 0.410856 0.211064
0.559876 0.419129 0.221609
0.627050 0.427454 0.232661
0.695562 0.436132 0.244233
0.764093 0.444783 0.256179
0.833153 0.453657 0.268508
0.901983 0.462809 0.281063
0.957771 0.471623 0.293453
0.229566 0.456127 0.207139
0.232940 0.456262 0.207493
0.246094 0.456608 0.208328
0.270751 0.457350 0.210047
0.305695 0.458485 0.212735
0.348787 0.460241 0.216502
0.397893 0.462461 0.221289
0.451317 0.465285 0.227162
0.508179 0.468760 0.234021
0.572436 0.476701 0.243695
0.638189 0.484491 0.253685
0.705362 0.492275 0.264219
0.772936 0.499960 0.275070
0.841388 0.507946 0.286319
0.909037 0.515841 0.297852
0.962373 0.523272 0.309167
0.268728 0.520619 0.236557
0.271593 0.520721 0.236764
0.283017 0.520996 0.237482
0.304840 0.521644 0.238936
0.336479 0.522681 0.241221
0.376381 0.524099 0.244429
0.422595 0.525990 0.248552
0.473921 0.528425 0.253639
0.529053 0.531338 0.259681
0.586888 0.534902 0.266540
0.651200 0.542261 0.275770
0.717022 0.549503 0.285395
0.783542 0.556524 0.295293
0.851040 0.563607 0.305613
0.917295 0.570589 0.316125
0.967438 0.576956 0.326554
0.307939 0.584675 0.265450
0.310433 0.584771 0.265590
0.320514 0.585041 0.266256
0.339923 0.585492 0.267455
0.368578 0.586415 0.269455
0.405435 0.587703 0.272195
0.448988 0.589325 0.275805
0.497958 0.591462 0.280294
0.551000 0.594057 0.285597
0.607209 0.597061 0.291652
0.665964 0.600617 0.298596
0.730483 0.607539 0.307544
0.795651 0.613957 0.316668
0.862230 0.620481 0.326043
0.926222 0.626540 0.335695
0.972990 0.632024 0.345234
0.347429 0.648699 0.293999
0.349481 0.648675 0.294077
0.358468 0.648769 0.294726
0.375938 0.649387 0.295695
0.401972 0.650110 0.297467
0.436091 0.651263 0.299873
0.476837 0.652687 0.303041
0.523317 0.654492 0.307025
0.574264 0.656535 0.311675
0.628570 0.659192 0.317136
0.686015 0.662461 0.323309
0.745770 0.666154 0.330227
0.809703 0.672271 0.338663
0.874785 0.677975 0.347426
0.935893 0.683611 0.356242
0.978643 0.688419 0.365046
0.386454 0.711592 0.321972
0.388406 0.711565 0.322049
0.396463 0.711778 0.322519
0.412273 0.712283 0.323489
0.435955 0.712795 0.324988
0.467439 0.713798 0.327145
0.505643 0.715199 0.329924
0.549650 0.716703 0.333483
0.598327 0.718592 0.337631
0.650819 0.721087 0.342584
0.706469 0.723838 0.348211
0.764655 0.727042 0.354401
0.824890 0.730717 0.361173
0.888798 0.736188 0.369359
0.945909 0.741148 0.377680
0.984522 0.745225 0.385543
0.425760 0.774217 0.349601
0.427498 0.774258 0.349718
0.434724 0.774346 0.350093
0.448892 0.774880 0.350960
0.470793 0.775478 0.352290
0.499867 0.776287 0.354217
0.535590 0.777350 0.356738
0.577230 0.778909 0.359871
0.623532 0.780546 0.363714
0.674146 0.782586 0.368001
0.727991 0.785346 0.373128
0.784530 0.788154 0.378809
0.843463 0.791305 0.385031
0.904000 0.794888 0.391900
0.956083 0.799591 0.399624
0.989899 0.802892 0.406959
0.464530 0.835777 0.376542
0.466092 0.835888 0.376692
0.472639 0.835883 0.377104
0.485734 0.836440 0.377865
0.505698 0.836813 0.378977
0.532708 0.837809 0.380776
0.566144 0.838608 0.383017
0.605385 0.840092 0.385848
0.649629 0.841597 0.389312
0.698041 0.843300 0.393247
0.749730 0.845583 0.397815
0.804992 0.848303 0.403064
0.862285 0.851251 0.408760
0.920073 0.854455 0.415078
0.966435 0.858096 0.421978
0.994772 0.860969 0.428673
0.502509 0.895645 0.402748
0.503881 0.895642 0.402809
0.509907 0.895920 0.403202
0.521757 0.896207 0.403870
0.540210 0.896668 0.404948
0.565271 0.897126 0.406494
0.596517 0.898304 0.408501
0.633496 0.899620 0.411049
0.675464 0.900798 0.414145
0.721661 0.902650 0.417794
0.771593 0.904456 0.421974
0.824834 0.906758 0.426751
0.880497 0.909487 0.432033
0.934515 0.912841 0.437866
0.975361 0.915798 0.444149
0.998422 0.919453 0.451014
0.000000 0.002597 0.069930
0.000000 0.002588 0.069738
0.058034 0.000000 0.062804
0.119061 0.000000 0.067897
0.182324 0.021072 0.077874
0.247752 0.049277 0.090673
0.315171 0.073539 0.105347
0.384261 0.097436 0.120949
0.454394 0.120902 0.137089
0.525429 0.143657 0.153581
0.596751 0.165788 0.170173
0.668564 0.187657 0.186920
0.739970 0.208994 0.203428
0.811549 0.230160 0.219981
0.882564 0.250815 0.236298
0.944902 0.270865 0.252126
0.000000 0.002569 0.069283
0.000000 0.002554 0.068910
0.061105 0.006779 0.065655
0.120797 0.027356 0.071631
0.183498 0.045635 0.081277
0.248569 0.064824 0.093499
0.315772 0.085243 0.107523
0.384728 0.106771 0.122641
0.454858 0.128323 0.138494
0.525874 0.149781 0.154693
0.597049 0.171012 0.171103
0.668902 0.192167 0.187702
0.740258 0.212969 0.204139
0.811724 0.233643 0.220640
0.882678 0.253963 0.236871
0.945193 0.273704 0.252655
0.000000 0.070442 0.068550
0.022149 0.072553 0.070475
0.071064 0.077260 0.074756
0.128498 0.080945 0.078096
0.190010 0.085622 0.082318
0.253971 0.095031 0.090786
0.319842 0.109552 0.103740
0.387862 0.126038 0.118325
0.457331 0.143737 0.133848
0.527748 0.162195 0.149921
0.598639 0.181078 0.166235
0.669897 0.200300 0.182752
0.741107 0.219523 0.199156
0.812258 0.238876 0.215574
0.883120 0.258039 0.231764
0.945217 0.276777 0.247514
0.038590 0.136980 0.086636
0.052700 0.137466 0.088212
0.085587 0.141102 0.087716
0.140617 0.144399 0.092770
0.198583 0.148663 0.098431
0.260434 0.154829 0.105698
0.324850 0.164004 0.116724
0.391887 0.175295 0.129584
0.460778 0.188255 0.143694
0.530607 0.202417 0.158565
0.601091 0.217502 0.173864
0.672031 0.233326 0.189503
0.743111 0.249566 0.205225
0.814147 0.266242 0.221022
0.884740 0.283154 0.236665
0.946324 0.299775 0.251988
0.075762 0.199937 0.109066
0.085262 0.200165 0.110357
0.108128 0.204285 0.107248
0.156527 0.206548 0.111385
0.211415 0.209823 0.117460
0.270349 0.214835 0.124909
0.332873 0.221675 0.134336
0.398340 0.230195 0.145293
0.466006 0.240236 0.157779
0.535211 0.251435 0.171158
0.605148 0.263464 0.185190
0.675761 0.276360 0.199702
0.746075 0.289818 0.214397
0.817036 0.303796 0.229373
0.887136 0.318131 0.244290
0.948033 0.332527 0.258952
0.114017 0.263281 0.134431
0.120874 0.263474 0.135315
0.137064 0.267230 0.131505
0.178174 0.268814 0.134773
0.228355 0.271356 0.139692
0.283678 0.274724 0.146167
0.343626 0.280369 0.154660
0.407450 0.287527 0.164419
0.473651 0.295754 0.175145
0.541709 0.305106 0.187179
0.610852 0.315002 0.199811
0.680791 0.325650 0.213073
0.750636 0.336852 0.226634
0.821057 0.348532 0.240552
0.890710 0.360736 0.254550
0.950537 0.372669 0.268322
0.152217 0.327149 0.161137
0.157368 0.327288 0.161718
0.169967 0.330116 0.158238
0.204679 0.331402 0.160815
0.249713 0.333379 0.164811
0.301444 0.336029 0.170168
0.357442 0.339545 0.176772
0.419088 0.345854 0.185467
0.483495 0.353138 0.195075
0.550317 0.361079 0.205722
0.618330 0.369656 0.217071
0.687362 0.378674 0.229044
0.756761 0.388198 0.241433
0.826312 0.398136 0.254291
0.895756 0.408284 0.267261
0.953570 0.418357 0.280131
0.190875 0.391585 0.188689
0.194951 0.391731 0.189191
0.204945 0.393905 0.185846
0.234517 0.394757 0.187907
0.274782 0.396313 0.191007
0.322866 0.398458 0.195557
0.376119 0.401356 0.201176
0.433013 0.404790 0.207874
0.495669 0.411343 0.216530
0.560984 0.418708 0.226183
0.627827 0.426277 0.236393
0.695734 0.434281 0.247235
0.764131 0.442329 0.258500
0.833156 0.450808 0.270211
0.901521 0.459546 0.282201
0.957523 0.468021 0.294037
0.229800 0.456264 0.216637
0.233211 0.456402 0.216939
0.241230 0.458014 0.213817
0.266851 0.458741 0.215492
0.303036 0.459944 0.218152
0.347386 0.461646 0.221858
0.397630 0.463958 0.226590
0.452226 0.466849 0.232424
0.510034 0.470333 0.239201
0.573653 0.477146 0.247928
0.639025 0.484024 0.257222
0.705924 0.491164 0.267128
0.773178 0.498270 0.277278
0.841476 0.505710 0.287909
0.908791 0.513235 0.298909
0.961927 0.520371 0.309855
0.269022 0.520726 0.244563
0.271850 0.520874 0.244839
0.278304 0.522088 0.241782
0.300810 0.522773 0.243216
0.333424 0.523768 0.245506
0.374249 0.525178 0.248671
0.421621 0.527125 0.252776
0.473851 0.529571 0.257811
0.529708 0.532550 0.263779
0.588388 0.536112 0.270617
0.652081 0.542492 0.279191
0.717504 0.549109 0.288138
0.784152 0.555519 0.297495
0.851088 0.562087 0.307299
0.917044 0.568638 0.317313
0.967096 0.574692 0.327300
0.308269 0.584871 0.272398
0.310651 0.584872 0.272566
0.315888 0.585817 0.269607
0.335909 0.586410 0.270866
0.365251 0.587253 0.272813
0.402924 0.588549 0.275592
0.447212 0.590061 0.279206
0.496970 0.592214 0.283604
0.550776 0.594962 0.288861
0.607693 0.597942 0.294992
0.667109 0.601562 0.301795
0.731333 0.607772 0.310111
0.796221 0.613497 0.318738
0.862416 0.619401 0.327708
0.926141 0.625217 0.336791
0.972830 0.630306 0.345956
0.347651 0.648700 0.300085
0.349757 0.648747 0.300165
0.353960 0.649525 0.297341
0.371836 0.649996 0.298368
0.398332 0.650783 0.300133
0.433210 0.651763 0.302539
0.474662 0.653114 0.305644
0.521717 0.655128 0.309618
0.573357 0.657195 0.314270
0.628420 0.659959 0.319761
0.686350 0.663084 0.325889
0.746449 0.666754 0.332808
0.810018 0.672223 0.340812
0.875090 0.677537 0.348954
0.935714 0.682721 0.357425
0.978588 0.686964 0.365788
0.386740 0.711677 0.327235
0.388691 0.711559 0.327482
0.392029 0.712194 0.324634
0.408153 0.712592 0.325634
0.432369 0.713348 0.327074
0.464272 0.714356 0.329268
0.503155 0.715573 0.331977
0.547711 0.717173 0.335502
0.597010 0.719176 0.339687
0.650050 0.721774 0.344554
0.706129 0.724323 0.350161
0.764686 0.727478 0.356446
0.825394 0.731114 0.363378
0.888997 0.736227 0.370996
0.945916 0.740604 0.378794
0.984574 0.744522 0.386398
0.425872 0.774303 0.354382
0.427628 0.774275 0.354384
0.430268 0.774573 0.351659
0.444709 0.775028 0.352526
0.466998 0.775555 0.353896
0.496556 0.776390 0.355822
0.532820 0.777623 0.358320
0.574856 0.778924 0.361458
0.621752 0.780704 0.365188
0.672742 0.782911 0.369564
0.726996 0.785453 0.374584
0.784129 0.788302 0.380354
0.843453 0.791760 0.386639
0.904443 0.795312 0.393493
0.956195 0.799480 0.400765
0.989889 0.802454 0.407789
0.464574 0.835974 0.380941
0.466222 0.835969 0.381022
0.468257 0.835999 0.378203
0.481524 0.836534 0.379066
0.501853 0.836802 0.380140
0.529260 0.837780 0.381898
0.563051 0.838749 0.384170
0.602700 0.840014 0.387092
0.647452 0.841779 0.390331
0.696360 0.843568 0.394472
0.748462 0.845730 0.399038
0.804000 0.848416 0.404194
0.861761 0.851436 0.409948
0.920120 0.854476 0.416345
0.966438 0.858204 0.423122
0.994653 0.860811 0.429576
0.502571 0.895739 0.406609
0.504011 0.895629 0.406672
0.505576 0.895612 0.404029
0.517677 0.896111 0.404701
0.536293 0.896629 0.405773
0.561618 0.897347 0.407362
0.593273 0.898044 0.409370
0.630663 0.899373 0.411862
0.673061 0.900866 0.414965
0.719754 0.902649 0.418648
0.770025 0.904304 0.422844
0.823424 0.906793 0.427629
0.879720 0.909532 0.432875
0.933957 0.912750 0.438698
0.975136 0.915768 0.445020
0.998459 0.919613 0.451919
0.000000 0.004595 0.123546
0.000000 0.004591 0.123457
0.064278 0.000334 0.135992
0.120294 0.000000 0.117541
0.183120 0.026474 0.124072
0.248324 0.052243 0.132917
0.315687 0.075754 0.143322
0.384657 0.099222 0.154980
0.454785 0.122336 0.167565
0.525725 0.144833 0.180864
0.597042 0.166826 0.194733
0.668774 0.188587 0.209018
0.740263 0.209768 0.223446
0.811624 0.230836 0.238186
0.882585 0.251450 0.252875
0.945092 0.271440 0.267266
0.000000 0.004583 0.123221
0.000000 0.004575 0.123000
0.066373 0.000268 0.135143
0.121998 0.031681 0.118974
0.184228 0.048650 0.125845
0.249138 0.067197 0.134531
0.316294 0.087189 0.144743
0.385060 0.108379 0.156189
0.455220 0.129662 0.168626
0.526129 0.150913 0.181798
0.597296 0.172026 0.195505
0.668909 0.192993 0.209712
0.740435 0.213729 0.224093
0.812047 0.234319 0.238720
0.882686 0.254539 0.253360
0.945203 0.274239 0.267739
0.000000 0.069006 0.101144
0.003746 0.072329 0.105715
0.046652 0.073718 0.130552
0.129510 0.080378 0.125253
0.190841 0.086551 0.128909
0.254630 0.096492 0.134812
0.320309 0.111011 0.143440
0.388279 0.127365 0.153899
0.457587 0.144955 0.165664
0.528014 0.163274 0.178360
0.598783 0.182019 0.191715
0.669968 0.201088 0.205685
0.741158 0.220271 0.219837
0.812717 0.239506 0.234359
0.883054 0.258623 0.248835
0.945239 0.277312 0.263099
0.035812 0.132330 0.123853
0.049830 0.133650 0.125018
0.083562 0.139104 0.129799
0.139414 0.143271 0.133442
0.200903 0.144107 0.134176
0.263787 0.143924 0.134009
0.328000 0.150403 0.139668
0.394396 0.160200 0.148181
0.462609 0.172377 0.158720
0.531901 0.186156 0.170624
0.601962 0.200992 0.183329
0.672520 0.216709 0.196755
0.743111 0.232927 0.210520
0.813860 0.249574 0.224612
0.883777 0.266466 0.238847
0.945570 0.283065 0.252786
0.077135 0.200618 0.144154
0.086546 0.200986 0.144815
0.109356 0.205197 0.145523
0.144242 0.209468 0.137406
0.215569 0.213609 0.143374
0.274770 0.213617 0.150526
0.336543 0.216656 0.155087
0.401294 0.222607 0.162365
0.468197 0.230858 0.171680
0.536712 0.240735 0.182408
0.606041 0.251875 0.194126
0.676230 0.264031 0.206649
0.746265 0.276848 0.219564
0.816482 0.290415 0.232910
0.886490 0.304259 0.246427
0.947331 0.318278 0.259789
0.115111 0.263930 0.163577
0.121935 0.264134 0.164209
0.138102 0.267926 0.163010
0.163179 0.273193 0.152780
0.225155 0.276224 0.157750
0.289730 0.280076 0.164249
0.348190 0.280627 0.172854
0.410726 0.284940 0.180036
0.476060 0.290823 0.188024
0.543412 0.298456 0.197635
0.611883 0.307100 0.208243
0.681326 0.316657 0.219636
0.750738 0.327060 0.231583
0.820615 0.338011 0.243968
0.889990 0.349486 0.256623
0.949780 0.360908 0.269276
0.153124 0.327686 0.185563
0.158251 0.327734 0.186034
0.170896 0.330575 0.184117
0.192120 0.335575 0.175814
0.244143 0.337695 0.179788
0.301854 0.340551 0.185091
0.362875 0.344313 0.191545
0.422969 0.346682 0.198807
0.486333 0.351556 0.207080
0.552195 0.357550 0.215478
0.619538 0.364641 0.225013
0.688124 0.372523 0.235326
0.756807 0.380912 0.246217
0.826187 0.389975 0.257663
0.895223 0.399408 0.269369
0.952840 0.408773 0.281057
0.191498 0.391907 0.209299
0.195612 0.392088 0.209659
0.205584 0.394313 0.207384
0.223450 0.398243 0.200202
0.268196 0.399817 0.203286
0.320492 0.402180 0.207754
0.377554 0.405231 0.213315
0.437662 0.408788 0.219885
